src/assets/sprout.svg

<svg xmlns="http://www.w3.org/2000/svg" fill="none" viewBox="0 0 24 24"><path fill="currentColor" d="M18.75 1.5a8.25735 8.25735 0 0 0-4.6558 1.44704 8.25696 8.25696 0 0 0-3.028 3.82126A5.24546 5.24546 0 0 0 6.75 4.5H4.5v2.25a5.25586 5.25586 0 0 0 1.5394 3.7106C7.02363 11.4448 8.35809 11.9985 9.75 12h.75v6.787a7.44216 7.44216 0 0 0-4.55325 2.1595l1.0605 1.0606a6.00102 6.00102 0 0 1 2.22144-1.4065 6.0008 6.0008 0 0 1 2.60951-.3216 6.00118 6.00118 0 0 1 2.4965.825 5.9994 5.9994 0 0 1 1.904 1.8132l1.2462-.8346a7.48568 7.48568 0 0 0-2.3739-2.2582A7.48506 7.48506 0 0 0 12 18.7965V12h.75c2.1873-.0025 4.2843-.8725 5.8309-2.41911C20.1275 8.03425 20.9975 5.93727 21 3.75V1.5h-2.25Zm-9 9a3.75422 3.75422 0 0 1-2.6504-1.0996A3.75427 3.75427 0 0 1 6 6.75V6h.75a3.75405 3.75405 0 0 1 3.75 3.75v.75h-.75Zm9.75-6.75c-.002 1.7896-.7138 3.50534-1.9792 4.77078C16.2553 9.78622 14.5396 10.498 12.75 10.5H12v-.75c.002-1.7896.7138-3.50534 1.9792-4.77078C15.2447 3.71378 16.9604 3.00199 18.75 3h.75v.75Z"/></svg>

<svg  viewBox="0 0 24 24" fill="none" xmlns="http://www.w3.org/2000/svg">

<path d="M18.75 1.5C17.0878 1.50275 15.4651 2.00708 14.0942 2.94704C12.7232 3.887 11.6679 5.21881 11.0662 6.7683C10.5841 6.06903 9.93949 5.49727 9.18767 5.10216C8.43584 4.70705 7.59932 4.50041 6.75 4.5H4.5V6.75C4.50155 8.14191 5.05517 9.47637 6.0394 10.4606C7.02363 11.4448 8.35809 11.9985 9.75 12H10.5V18.787C8.7773 18.9554 7.16718 19.7191 5.94675 20.9465L7.00725 22.0071C7.63464 21.3798 8.39333 20.8995 9.22869 20.6006C10.064 20.3018 10.9553 20.192 11.8382 20.279C12.7211 20.3661 13.5737 20.6478 14.3347 21.104C15.0956 21.5602 15.7459 22.1794 16.2387 22.9172L17.4849 22.0826C16.8701 21.1638 16.0593 20.3926 15.111 19.8244C14.1626 19.2562 13.1002 18.9052 12 18.7965V12H12.75C14.9373 11.9975 17.0343 11.1275 18.5809 9.58089C20.1275 8.03425 20.9975 5.93727 21 3.75V1.5H18.75ZM9.75 10.5C8.75579 10.4989 7.80262 10.1034 7.0996 9.4004C6.39658 8.69738 6.00113 7.74421 6 6.75V6H6.75C7.74423 6.00107 8.69744 6.3965 9.40047 7.09953C10.1035 7.80256 10.4989 8.75577 10.5 9.75V10.5H9.75ZM19.5 3.75C19.498 5.5396 18.7862 7.25534 17.5208 8.52078C16.2553 9.78622 14.5396 10.498 12.75 10.5H12V9.75C12.002 7.9604 12.7138 6.24466 13.9792 4.97922C15.2447 3.71378 16.9604 3.00199 18.75 3H19.5V3.75Z" fill="currentColor"/>
</svg>
